svgs/icons/sm/city.svg

<svg xmlns="http://www.w3.org/2000/svg" viewBox="0 0 16 16" enable-background="new 0 0 16 16"><g fill="#34363D"><path d="M4 6v8h8v-8c0-2.2-1.8-4-4-4s-4 1.8-4 4zm3 6h-1v-2h1v2zm0-3h-1v-2h1v2zm0-3h-1v-2h1v2zm3 6h-1v-2h1v2zm0-3h-1v-2h1v2zm0-3h-1v-2h1v2zM0 7v7h3v-7h-3zm2 6h-1v-1h1v1zm0-2h-1v-1h1v1zm0-2h-1v-1h1v1zM14.5 5c-.8 0-1.5.7-1.5 1.5v7.5h1v-2h1v2h1v-7.5c0-.8-.7-1.5-1.5-1.5zm.5 6h-1v-2h1v2zm0-3h-1v-2h1v2z"/></g></svg>

<svg xmlns="http://www.w3.org/2000/svg" viewBox="0 0 16 16"><path d="M4 6v8h8V6c0-2.2-1.8-4-4-4S4 3.8 4 6zm3 6H6v-2h1v2zm0-3H6V7h1v2zm0-3H6V4h1v2zm3 6H9v-2h1v2zm0-3H9V7h1v2zm0-3H9V4h1v2zM0 7v7h3V7H0zm2 6H1v-1h1v1zm0-2H1v-1h1v1zm0-2H1V8h1v1zm12.5-4c-.8 0-1.5.7-1.5 1.5V14h1v-2h1v2h1V6.5c0-.8-.7-1.5-1.5-1.5zm.5 6h-1V9h1v2zm0-3h-1V6h1v2z" fill="#34363D"/></svg>
